!!!OTL: "Graf Wattenwill " NUN HOERET ZU UND SCHWEIGET STILL
!!!ARE: Europa, Mitteleuropa, Deutschland, Lothringen
!!!SCT: Z1004
!!!YEM: Copyright 1995, estate of Helmut Schaffrath.
**kern
*ICvox
*Ivox
*M6/8
*k[c-e-a-]
*c:
{8g
=1
4c
8d
4e-
8f
=2
4g
8g
4f}
{8g
=3
4a-
8g
8f
8e-
8f
=4
4g
8g
4g}
{8g
=5
8g
8a-
8b-
8b-
8a-
8g
=6
4g
8f
4f}
{8f
=7
8e-
8f
8g
8g
8f
8e-
=8
4e-
8d
4d}
{16g
16g
=9
8g
8f
8e-
8d
8c
8B
=10
[4.c
4c]}
==
!!!AGN: Romanze, Ballade
!!!ONB: ESAC (Essen Associative Code) Database: ZUCCAL
!!!AMT: compound duple
!!!AIN: vox
!!!EED: Helmut Schaffrath
!!!EEV: 1.0
*-
